icon-themes/sifr_svg/cmd/sc_shrink.svg

<svg viewBox="0 0 16 16" xmlns="http://www.w3.org/2000/svg"><path d="m12 0v2.5625l-.28125-.28125c-.18818-.18811-.45344-.28129-.71875-.28125h-1v1c0 .26529.09304.53057.28125.71875l2 2 .28125.28125h.875l.28125-.28125 2-2c.18814-.18817.28122-.45344.28125-.71875v-1h-1c-.2653 0-.53058.0931-.71875.28125l-.28125.28125v-2.5625zm-10 3v2h5c.552285 0 1 .4477153 1 1v1h-5c-1.6568542 0-3 1.3431458-3 3 0 1.656854 1.3431458 3 3 3h7v-7c0-1.6568542-1.343146-3-3-3zm1 6h5v2h-5c-.5522847 0-1-.447715-1-1 0-.5522847.4477153-1 1-1z" fill="#555753"/></svg>

<svg xmlns="http://www.w3.org/2000/svg" viewBox="0 0 16 16">
  <path
     style="fill:#555753"
     d="M 12 0 L 12 2.5625 L 11.71875 2.28125 C 11.53057 2.09314 11.26531 1.99996 11 2 L 10 2 L 10 3 C 10 3.26529 10.09304 3.53057 10.28125 3.71875 L 12.28125 5.71875 L 12.5625 6 L 13.4375 6 L 13.71875 5.71875 L 15.71875 3.71875 C 15.90689 3.53058 15.99997 3.26531 16 3 L 16 2 L 15 2 C 14.7347 2 14.46942 2.0931 14.28125 2.28125 L 14 2.5625 L 14 0 L 12 0 z M 2 3 L 2 5 L 7 5 C 7.552285 5 8 5.4477153 8 6 L 8 7 L 3 7 C 1.3431458 7 0 8.3431458 0 10 C 0 11.656854 1.3431458 13 3 13 L 10 13 L 10 6 C 10 4.3431458 8.656854 3 7 3 L 2 3 z M 3 9 L 8 9 L 8 11 L 3 11 C 2.4477153 11 2 10.552285 2 10 C 2 9.4477153 2.4477153 9 3 9 z "
     />
</svg>
